X:1
T:Tenebrae factae sunt - Croce 
T:#
%%score [ 1 2 3 4 ]
L:1/8
Q:1/4=180
M:none
K:C
V:1 treble nm="Soprano" snm="S"
V:2 treble nm="Alto" snm="A"
V:3 treble-8 nm="Tenor" snm="T"
V:4 bass nm="Bass" snm="B"
V:1
"^Tenebrae factae sunt""^Giovanni Croce\n(1557-1609)" A12 A4 | F8 G8 | E8 D8 | z4 D8 E4 | %4
w: Te- ne-|brae fa-|ctae sunt,|dum cru-|
 E4 E4 E4 E4 | D8 F4 F4 | E16 |[M:4/2] E8 z4 E4 | F6 F2 F4 E4 | (E4 D4) E8- | E8 E6 E2 | E4 E4 F8 | %12
w: ci- fi- xis- sent|Je- sum Ju-|dae-|i: et|cir- ca ho- ram|no\- * nam|* ex- cla-|ma- vit Je-|
 G4 G8 F4 | E16 | ^C16 || E16 | ^F16 | G16 | G4 G4 G6 G2 | G4 G4 E4 A4 | ^G16 || A8 A4 G4 | %22
w: sum vo- ce|ma-|gna:|De-|us|me-|us, ut quid de-|re- li- qui- sti|me?|Et in- cli-|
 F4 E4[Q:1/4=177] D6[Q:1/4=174] D2 |[Q:1/4=171] C4[Q:1/4=168] A,4[Q:1/4=165] C4[Q:1/4=162] B,4 | %24
w: na- to ca- pi-|te e- mi- sit|
[Q:1/4=159] (A,6[Q:1/4=156] B,2[Q:1/4=154] C4)[Q:1/4=151] C4 |[Q:1/4=150] B,16 |] %26
w: spi\- * * ri-|tum.|
V:2
 E12 F4 | D8 (E6 D2 | C4) C4 B,8 | z4 B,8 B,4 | B,4 B,4 B,4 A,4 | A,12 D4- | D4 C4 B,8 | %7
w: Te- ne-|brae fa\- *|* ctae sunt,|dum cru-|ci- fi- xis- sent|Je- sum|* Ju- dae-|
[M:4/2] C8 z4 ^C4 | D6 D2 D4 G,4 | (A,6 B,2 C4) B,4 | z4 C8 A,4 | B,4 C4 D8 | E4 D8 D4 | %13
w: i: et|cir- ca ho- ram|no\- * * name|ex- cla-|ma- vit Je-|sum vo- ce|
 (B,2 G,2 C4 B,8) | A,16 || ^C16 | D16 | E16 | D4 E4 D6 E2 | D4 E4 C4 D4 | E16 || E8 E4 E4 | %22
w: ma\- * * *|gna:|De-|us|me-|us, ut quid de-|re- li- qui- sti|me?|Et in- cli-|
 C4 C4 A,6 A,2 | A,4 C4 A,4 B,4 | (C6 B,2 A,4) A,4 | ^G,16 |] %26
w: na- to ca- pi-|te e- mi- sit|spi\- * * ri-|tum.|
V:3
 ^c12 d4 | A8 (c6 BA | G4) G4 G8 | z4 G8 ^G4 | ^G4 G4 G4 A4 | F8 A8 | ^G4 (A8 G4) | %7
w: Te- ne-|brae fa\- * *|* ctae sunt,|dum cru-|ci- fi- xis- sent|Je- sum|Ju- dae\- *|
[M:4/2][K:treble-8] A4 E4 A6 A2 | A8 A4 (c4- | c2 B2 A8 ^G4) | A8 A4 c4 | B4 A4 A8 | c4 B8 A4 | %13
w: i: et cir- ca|ho- ram no\-||nam ex- cla-|ma- vit Je-|sum vo- ce|
 (G2 E2 A8 ^G4) | A16 || A16 | A16 | c16 | B4 c4 B6 c2 | B4 c4 A4 A4 | B16 || c8 c4 B4 | %22
w: ma\- * * *|gna:|De-|us|me-|us, ut quid de-|re- li- qui- sti|me?|Et in- cli-|
 A4 G4 F6 F2 | E4 E4 E4 E4 | E12 E4 | E16 |] %26
w: na- to ca- pi-|te e- mi- sit|spi- ri-|tum.|
V:4
 A,12 D,4 | D,8 C,8- | C,4 C,4 G,,8 | z4 G,8 E,4 | E,4 E,4 E,4 ^C,4 | D,8 D,4 D,4 | E,16 | %7
w: Te- ne-|brae fa\-|* ctae sunt,|dum cru-|ci- fi- xis- sent|Je- sum Ju-|dae-|
[M:4/2] A,,8 z4 A,,4 | D,6 D,2 D,4 C,4 | F,8 E,8 | z4 A,8 A,4 | ^G,4 A,4 D,8 | C,4 G,8 D,4 | E,16 | %14
w: i: et|cir- ca ho- ram|no- nam|ex- cla-|ma- vit Je-|sum vo- ce|ma-|
 A,,16 || A,,16 | D,16 | C,16 | G,4 C,4 G,6 C,2 | G,4 E,4 A,4 F,4 | E,16 || A,8 A,4 E,4 | %22
w: gna:|De-|us|me-|us, ut quid de-|re- li- qui- sti|me?|Et in- cli-|
 F,4 C,4 D,6 D,2 | A,,4 A,,4 A,,4 ^G,,4 | A,,12 A,,4 | E,,16 |] %26
w: na- to ca- pi-|te e- mi- sit|spi- ri-|tum.|

